X:1
T:Christ the Savior Born
T:Christ the Savior Born
T:Hubert Platt Main
T:Frances Jane (Fanny) Crosby, 1872
T:Public Domain Courtesy of the Cyber Hymnal™
T:Public Domain Courtesy of the Cyber Hymnal™
C:Hubert Platt Main
Z:Public Domain
Z:Courtesy of the Cyber Hymnal™
%%score ( 1 2 ) ( 3 4 )
L:1/8
Q:1/4=90
M:3/4
K:G
V:1 treble 
V:2 treble 
V:3 bass 
V:4 bass 
V:1
 [B,D]>[B,D] | [DG]3 [DG] (3(BA)[DG] | [Fd]2 [Fd]2 (3([Fd]G)[Ad] | [Gd]3 [DB] (3(BA)[=CG] | %4
w: 1.~Strike your|harps, ye saints * in|glo- ry, Shout * a-|loud the won- * drous|
w: 2.~Clasp your|hands, ye floods * of|o- cean, Sing, * ye|hills, with pure * de-|
w: 3.~Hark! the|migh- ty an- * them|ring- ing, Mul- * ti-|tudes of an- * gels|
 [DB]2 [DA]2 [Fd]>[Dd] | [Fd]4 [E^c]2 | [Fd]4 [FA]>[FA] | [FA]3 [DF] (3([DF][EG])[FA] | %8
w: sto- ry, Christ the|Sav- ior|born; Born, His|peo- ple to * de-|
w: vo- tion, Christ the|Sav- ior|born; Wake, O|earth! the song * re-|
w: sing- ing, Christ the|Sav- ior|born; O- pened|now the gates * of|
 [GB]2 [FA]2 [Ac]>[Ac] | [Ac]3 [FA] (3([Bd][Ac])[GB] | [GB]2 [FA]2 (3([G-d]G)[Fd] | %11
w: liv- er, Born, to|reign our king * for-|ev- er; Tell * it|
w: peat- ing, Wake! thy|own Mes- si- * ah|greet- ing; Hearts * with|
w: glo- ry, Man re-|deemed, O won- * drous|sto- ry! Glo- * ry|
 [Gd]3 [DB] (3(BA)[DG] | [EG]2 [CE]2 D>[DG] | [GB]4 [FA]2 | [GB]4 (3([G-d]G)[Fd] | %15
w: by the crys- * tal|ri- ver, Christ the|Sav- ior|born; Tell * it|
w: ho- ly rap- * ture|beat- ing, Hail a|Sav- ior|born; Hearts * with|
w: in the high- * est,|glo- ry! Christ the|Sav- ior|born; Glo- * ry|
 [Gd]3 [DB] (3(BA)[DG] | [EG]2 !fermata![CE]2 D>[DG] | [GB]4 [FA]2 | !fermata!G4 |] %19
w: by the crys- * tal|ri- ver, Christ the|Sav- ior|born.|
w: ho- ly rap- * ture|beat- ing, Hail a|Sav- ior|born.|
w: in the high- * est,|glo- ry! Christ the|Sav- ior|born.|
V:2
 x2 | x4 G2 | x6 | x4 ^C2 | x6 | x6 | x6 | x6 | x6 | x6 | x6 | x4 D2 | x4 D3/2 x/ | x6 | x6 | %15
 x4 D2 | x4 D3/2 x/ | x6 | G4 |] %19
V:3
 G,>G, | [G,B,]3 [G,B,] (3(DC)[G,B,] | [D,A,]2 [D,A,]2 (3(A,B,)[D,C] | %3
 [G,B,]3 G, (3:2:2[E,G,]2 [E,G,] | [D,G,]2 [D,F,]2 [D,A,]>[F,A,] | A,4 [A,,A,]2 | %6
 [D,A,]4 [D,A,]>[D,A,] | [D,A,]3 [D,F,] (3(F,G,)[D,A,] | [D,B,]2 [D,A,]2 [D,C]>[D,C] | %9
 [D,C]3 [D,A,] (3(DC)[D,B,] | [D,B,]2 [D,A,]2 (3([G,,B,][B,,G,])[D,A,] | %11
 [G,B,]3 [G,,G,] (3([G,,G,][A,,F,])[B,,G,] | [C,G,]2 [C,G,]2 [B,,G,]>[G,,B,] | [D,D]4 [D,D]2 | %14
 [G,D]4 (3([G,,B,][B,,G,])[D,A,] | [G,B,]3 [G,,G,] (3([G,,G,][A,,F,])[B,,G,] | %16
 [C,G,]2 !fermata![C,G,]2 [B,,G,]>[G,,B,] | [D,D]4 [D,C]2 | [G,,B,]4 |] %19
V:4
 G,>G, | x4 G,2 | x4 D,2 | x3 G, x2 | x6 | A,4 x2 | x6 | x4 D,2 | x6 | x4 D,2 | x6 | x6 | x6 | x6 | %14
 x6 | x6 | x6 | x6 | x4 |] %19

